svgs/sharp-solid/thumbtack.svg

<svg xmlns="http://www.w3.org/2000/svg" viewBox="0 0 384 512"><!--! Font Awesome Pro 6.6.0 by @fontawesome - https://fontawesome.com License - https://fontawesome.com/license (Commercial License) Copyright 2024 Fonticons, Inc. --><path d="M64 0L32 0l0 64 32 0 29.5 0L82.1 212.1C23.7 240.7 0 293 0 320l0 32 384 0 0-32c0-22.5-23.7-76.5-82.1-106.7L290.5 64 320 64l32 0 0-64L320 0 64 0zm96 480l0 32 64 0 0-32 0-96-64 0 0 96z"/></svg>

<svg xmlns="http://www.w3.org/2000/svg" viewBox="0 0 384 512"><!--! Font Awesome Pro 6.4.2 by @fontawesome - https://fontawesome.com License - https://fontawesome.com/license (Commercial License) Copyright 2023 Fonticons, Inc. --><path d="M64 0H32V64H64 93.5L82.1 212.1C23.7 240.7 0 293 0 320v32H384V320c0-22.5-23.7-76.5-82.1-106.7L290.5 64H320h32V0H320 64zm96 480v32h64V480 384H160v96z"/></svg>
